X:1
T:Some Day He’ll Make It Plain
T:Some Day He’ll Make It Plain
T:Adam Geibel
T:Lida Shivers Leech, 1911
T:Public Domain Courtesy of the Cyber Hymnal™
T:Public Domain Courtesy of the Cyber Hymnal™
C:Adam Geibel
Z:Public Domain
Z:Courtesy of the Cyber Hymnal™
%%score ( 1 2 ) ( 3 4 )
L:1/8
Q:1/4=95
M:3/4
K:Ab
V:1 treble 
V:2 treble 
V:3 bass 
V:4 bass 
V:1
 E=D E | (z [CE] [CE])F AF | z [B,D] [B,D]E =DE | z [B,D] [B,D]E GE | z [A,C] [A,C] | E=D E | %6
w: 1.~I do not|* * know why oft|* * ’round me My|* * hopes all shat-||* tered seem|
w: 2.~I can- not|* * tell the depth|* * of love, Which|* * moves the Fa-||* ther’s heart|
w: 3.~Tho’ tri- als|* * come thro’ pass-|* * ing days, My|* * life will still||* be filled|
 (z [E=A] [EA])d cA | (z [DF][DF][DF] [DFd])F | F F2 [B,_D] [B,DF][B,DG][B,DA] | %9
w: * * to be; God’s|* * * * per-|fect plan I can- not see,|
w: * * a- bove; My|* * * * faith|to test, my love to prove,|
w: * * with praise; For|* * * * God|will lead thro’ dark- ened ways,|
 z [DE] [DG][DF] [DE]2 ||"^Refrain" [Ec] [Ec]2 [CA] [CE][=B,=D] | [B,D]>[Ec] [DB]3 z | %12
w: |* But some day I’ll|un- der- stand.|
w: |* But some day I’ll|un- der- stand.|
w: |* But some day I’ll|un- der- stand.|
 [DB] [DB]2 [DG] [B,E][B,D] | [A,C]>[CB] [CA]3 z | [_GA] [GA]2 [GA] [GB][Gc] | %15
w: |||
w: |||
w: |||
 [FB]>[DF] !fermata![DF]A GF | E[Ec] [Gd]2 [EG]2 | [EA]3 |] %18
w: |||
w: |||
w: |||
V:2
 x3 | A3 x3 | G3 x3 | G3 x3 | F3 | x3 | c3 x3 | d4- x2 | x [B,=D] x5 | B6 || x6 | x6 | x6 | x6 | %14
 x6 | x3 A GF | E x5 | x3 |] %18
V:3
 E,=D, E, | [A,,B,]3 F, A,F, | [B,,G,]3 E, =D,E, | [E,G,]3 E, G,E, | [A,,F,]3 | E,=D, E, | %6
w: ~ ~ ~|~ ~ ~ ~|~ ~ ~ ~|~ ~ ~ ~|~|~ ~ ~|
 [F,C]3 D C=A, | [B,,B,]4- [B,,B,]F, | F, F,2 F, G,A, x | (z G,B,A, G,2) || %10
w: ~ ~ ~ ~|~ * ~|~ ~ ~ ~ ~||
 [A,,A,] [A,,A,]2 [A,,A,] [A,,A,][A,,A,] | [E,G,]>[E,G,] [E,G,]3 z | %12
w: * ~ Some day He’ll|make it plain|
 [E,G,] [E,G,]2 [E,B,] [E,G,][E,G,] | [A,,E,]>[A,,E,] [A,,E,]3 z | [A,C] [A,C]2 [A,C] [A,D][A,E] | %15
w: to me, Some day when|I His face|shall see; Some day from|
 [D,D]>[D,A,] [D,A,]A, G,F, | E,[E,A,] [E,B,]2 [E,D]2 | [A,,C]3 |] %18
w: tears I shall be free, For|some day I shall|un-|
V:4
 x3 | x6 | x6 | x6 | x3 | x3 | x6 | x6 | B,,6 x | E,6 || x6 | x6 | x6 | x6 | x6 | x3 A, G,F, | %16
 E, x5 | x3 |] %18

